!!!COM: Corelli, Arcangelo
!!!OTL: 
!!!ONM: Opus 6, No. 8
!!!OMV: 4
!!!CDT: 1653/2/17/-1713/1/8/
!!!OCY: Italia
**kern	**kern	**kern	**kern	**kern	**kern	**kern
*clefC	*clefG	*clefG	*clefG	*clefC	*clefG	*clefG
*k[b-]	*k[b-]	*k[b-]	*k[b-]	*k[b-]	*k[b-]	*k[b-]
*F:	*F:	*F:	*F:	*F:	*F:	*F:
*M4/4	*M4/4	*M4/4	*M4/4	*M4/4	*M4/4	*M4/4
=1	=1	=1	=1	=1	=1	=1
4E-	8e-	8g	8b-	8e-	2r	16g
.	.	.	.	.	.	16b-
.	8e-	8g	8b-	8e-	.	16ee-
.	.	.	.	.	.	16b-
4r	8e-	8g	8b-	8e-	.	16g
.	.	.	.	.	.	16e-
.	8e-	8g	8b-	8e-	.	16g
.	.	.	.	.	.	16b-
4D	8b-	8f	8b-	8d	16f	8f
.	.	.	.	.	16b-	.
.	8B-	8f	8b-	8d	16dd	8B-
.	.	.	.	.	16b-	.
4r	8B-	8f	8b-	8d	16f	4r
.	.	.	.	.	16d	.
.	8B-	8f	8b-	8d	16f	.
.	.	.	.	.	16b-	.
=2	=2	=2	=2	=2	=2	=2
4C	8c	8e-	8b-	8c	8e-	16ee-
.	.	.	.	.	.	16gg
.	8c	8e-	8e-	8c	8ee-	16bb-
.	.	.	.	.	.	16gg
4r	8e-	8e-	8a-	8c	4r	16ee-
.	.	.	.	.	.	16cc
.	8e-	4a-	8cc	8f	.	16a-
.	.	.	.	.	.	16cc
8BB-	8f	.	8d	8B-	8a-	8d
8E-	16g	8g	4e-	8E-	8g	4e-
.	16a-	.	.	.	.	.
8B-	8.b-	8.f	.	8B-	8.f	.
8BB-	.	.	8d	8BB-	.	8d
.	16b-	16b-	.	.	16b-	.
=3	=3	=3	=3	=3	=3	=3
4E-	4b-	4g	4e-	16r	8g	8e-
.	.	.	.	16E-	.	.
.	.	.	.	16G	8gg	4ee-
.	.	.	.	16E-	.	.
2.r	2.r	2.r	2.r	16B-	8ff	.
.	.	.	.	16BB-	.	.
.	.	.	.	16D	8b-	8dd
.	.	.	.	16BB-	.	.
.	.	.	.	16r	8r	16e-
.	.	.	.	16c	.	16g
.	.	.	.	16e-	8ee-	4cc
.	.	.	.	16c	.	.
.	.	.	.	16g	8dd	.
.	.	.	.	16G	.	.
.	.	.	.	16B-	8g	8b-
.	.	.	.	16G	.	.
=4	=4	=4	=4	=4	=4	=4
2..r	2..r	2..r	2..r	16r	8r	16c
.	.	.	.	16A-	.	16e-
.	.	.	.	16c	8cc	4a-
.	.	.	.	16A-	.	.
.	.	.	.	16e-	8b-	.
.	.	.	.	16E-	.	.
.	.	.	.	16G	8e-	8g
.	.	.	.	16E-	.	.
.	.	.	.	16r	8r	16A
.	.	.	.	16F	.	16c
.	.	.	.	16A-	8a-	4f
.	.	.	.	16F	.	.
.	.	.	.	16G	4g	.
.	.	.	.	16F	.	.
8G	8B-	8g	[8e-	16G	.	[8e-
.	.	.	.	16E-	.	.
=5	=5	=5	=5	=5	=5	=5
8A	8c	8f	8e-]	8A	8f	8e-]
8B-	8d	4b-	8d	8B-	4b-	8d
8E-	8g	.	8.c	8E-	.	8.c
8F	8f	8a	.	8F	8a	.
.	.	.	16f	.	.	16f
4BB-	4f	4b-	8d	4BB-	4b-	8d
.	.	.	4b-	.	.	4b-
4r	4r	4cc	.	4r	4cc	.
.	.	.	[8a-	.	.	[8a-
=6	=6	=6	=6	=6	=6	=6
2r	2r	8dd	8a-]	2r	8dd	8a-]
.	.	8ee-	4g	.	8ee-	4g
.	.	4.a-	.	.	4.a-	.
.	.	.	8f	.	.	8f
4E-	4b-	.	8B-	16r	.	8B-
.	.	.	.	16E-	.	.
.	.	8g	4e-	16G	8g	4e-
.	.	.	.	16E-	.	.
4BB-	4b-	4f	.	16B-	4f	.
.	.	.	.	16BB-	.	.
.	.	.	[8d	16D	.	[8d
.	.	.	.	16BB-	.	.
=7	=7	=7	=7	=7	=7	=7
4C	4g	4e-	8d]	16r	4e-	8d]
.	.	.	.	16C	.	.
.	.	.	4c	16E-	.	4c
.	.	.	.	16C	.	.
4GG	4g	8.d	.	16G	8.d	.
.	.	.	.	16GG	.	.
.	.	.	8B-	16BB-	.	8B-
.	.	16b-	.	16GG	16b-	.
4AA-	4e-	8a-	16c	16AA-	8a-	16c
.	.	.	16d	16BB-	.	16d
.	.	8g	8e-	16C	8g	8e-
.	.	.	.	16AA-	.	.
4BB-	4B-	8.f	8.e-	8BB-	8.f	8.e-
.	.	.	.	8BB-	.	.
.	.	16b-	16d	.	16b-	16d
=8	=8	=8	=8	=8	=8	=8
8E-	4B-	4g	8e-	16E-	4g	8e-
.	.	.	.	16F	.	.
8G	.	.	4b-	16G	.	4b-
.	.	.	.	16E-	.	.
8A-	8r	4cc	.	16A-	4cc	.
.	.	.	.	16B-	.	.
8AA-	8c	.	4a-	16c	.	4a-
.	.	.	.	16A-	.	.
8BB-	8f	8d	.	8B-	8d	.
8E-	16g	4e-	8g	8E-	4e-	8g
.	16a-	.	.	.	.	.
8B-	8.b-	.	4f	8B-	.	4f
8BB-	.	8d	.	8BB-	8d	.
.	16b-	.	.	.	.	.
=9	=9	=9	=9	=9	=9	=9
8E-	8g	4e-	16e-	8E-	4e-	16e-
.	.	.	16g	.	.	16g
8E-	8g	.	16e-	8E-	.	16e-
.	.	.	16g	.	.	16g
8E-	8g	4r	16e-	8E-	4r	16e-
.	.	.	16g	.	.	16g
8E-	8g	.	16e-	8E-	.	16e-
.	.	.	16g	.	.	16g
8BB	8g	8g	16d	8BB	8g	16d
.	.	.	16g	.	.	16g
8BB	8g	8g	16d	8BB	8g	16d
.	.	.	16g	.	.	16g
8BB	8g	8g	16d	8BB	8g	16d
.	.	.	16g	.	.	16g
8BB	8g	8g	16d	8BB	8g	16d
.	.	.	16g	.	.	16g
=10	=10	=10	=10	=10	=10	=10
8C	8g	8g	16e-	8C	8g	16e-
.	.	.	16g	.	.	16g
8C	8g	8c	16e-	8C	8c	16e-
.	.	.	16g	.	.	16g
8C	8g	4r	16e-	8C	4r	16e-
.	.	.	16g	.	.	16g
8C	8g	.	16e-	8C	.	16e-
.	.	.	16g	.	.	16g
8c	8g	4ee-	16cc	8c	4ee-	16cc
.	.	.	16ee-	.	.	16ee-
8c	8g	.	16cc	8c	.	16cc
.	.	.	16ee-	.	.	16ee-
8c	8g	4r	16cc	8c	4r	16cc
.	.	.	16ee-	.	.	16ee-
8c	8g	.	16cc	8c	.	16cc
.	.	.	16ee-	.	.	16ee-
=11	=11	=11	=11	=11	=11	=11
8F#	8d	8dd	16a	8F#	8dd	16a
.	.	.	16dd	.	.	16dd
8F#	8d	8dd	16a	8F#	8dd	16a
.	.	.	16dd	.	.	16dd
8F#	8d	8dd	16a	8F#	8dd	16a
.	.	.	16dd	.	.	16dd
8F#	8d	8dd	16a	8F#	8dd	16a
.	.	.	16dd	.	.	16dd
8G	8d	8dd	16b-	8G	8dd	16b-
.	.	.	16dd	.	.	16dd
8G	8d	8g	16b-	8G	8g	16b-
.	.	.	16dd	.	.	16dd
8G	8d	4r	16b-	8G	4r	16b-
.	.	.	16dd	.	.	16dd
8G	8d	.	16b-	8G	.	16b-
.	.	.	16dd	.	.	16dd
=12	=12	=12	=12	=12	=12	=12
8E	8c	8cc	16g	8E	8cc	16g
.	.	.	16cc	.	.	16cc
8E	8c	8cc	16g	8E	8cc	16g
.	.	.	16cc	.	.	16cc
8E	8c	8cc	16g	8E	8cc	16g
.	.	.	16cc	.	.	16cc
8E	8c	8cc	16g	8E	8cc	16g
.	.	.	16cc	.	.	16cc
8F	8c	8cc	16a-	8F	8cc	16a-
.	.	.	16cc	.	.	16cc
8F	8c	8f	16a-	8F	8f	16a-
.	.	.	16cc	.	.	16cc
8F	8c	4r	16a-	8F	4r	16a-
.	.	.	16cc	.	.	16cc
8F	8c	.	16a-	8F	.	16a-
.	.	.	16cc	.	.	16cc
=13	=13	=13	=13	=13	=13	=13
8D	8B-	8b-	16f	8D	8b-	16f
.	.	.	16b-	.	.	16b-
8D	8B-	8b-	16f	8D	8b-	16f
.	.	.	16b-	.	.	16b-
8D	8B-	8b-	16f	8D	8b-	16f
.	.	.	16b-	.	.	16b-
8D	8B-	8b-	16f	8D	8b-	16f
.	.	.	16b-	.	.	16b-
8E-	8B-	8b-	16g	8E-	8b-	16g
.	.	.	16b-	.	.	16b-
8E-	8B-	8e-	16g	8E-	8e-	16g
.	.	.	16b-	.	.	16b-
8E-	8B-	4r	16g	8E-	4r	16g
.	.	.	16b-	.	.	16b-
8E-	8B-	.	16g	8E-	.	16g
.	.	.	16b-	.	.	16b-
=14	=14	=14	=14	=14	=14	=14
8GG	8e-	8b-	16e-	8GG	8b-	16e-
.	.	.	16b-	.	.	16b-
8GG	8e-	8g	16e-	8GG	8g	16e-
.	.	.	16b-	.	.	16b-
8GG	8e-	8e-	16e-	8GG	8e-	16e-
.	.	.	16b-	.	.	16b-
8GG	8e-	8b-	16e-	8GG	8a	16e-
.	.	.	16b-	.	.	16b-
8AA-	8e-	8cc	16e-	8AA-	8cc	16e-
.	.	.	16cc	.	.	16cc
8AA-	8e-	8A-	16e-	8AA-	8A-	16e-
.	.	.	16cc	.	.	16cc
8AA-	8e-	4r	16e-	8AA-	4r	16e-
.	.	.	16cc	.	.	16cc
8AA-	8e-	.	16e-	8AA-	.	16e-
.	.	.	16cc	.	.	16cc
=15	=15	=15	=15	=15	=15	=15
8AA	8f	8cc	16f	8AA	8cc	16f
.	.	.	16cc	.	.	16cc
8AA	8f	8a	16f	8AA	8a	16f
.	.	.	16cc	.	.	16cc
8AA	8f	8f	16f	8AA	8f	16f
.	.	.	16cc	.	.	16cc
8AA	8f	8cc	16f	8AA	8cc	16f
.	.	.	16cc	.	.	16cc
8BB-	8f	8dd	16f	8BB-	8dd	16f
.	.	.	16dd	.	.	16dd
8BB-	8f	8B-	16f	8BB-	8B-	16f
.	.	.	16dd	.	.	16dd
8BB-	8f	4r	16f	8BB-	4r	16f
.	.	.	16dd	.	.	16dd
8BB-	8f	.	16f	8BB-	.	16f
.	.	.	16dd	.	.	16dd
=16	=16	=16	=16	=16	=16	=16
8GG	8e-	8ee-	16b-	8GG	8ee-	16b-
.	.	.	16ee-	.	.	16ee-
8GG	8e-	8e-	16b-	8GG	8e-	16b-
.	.	.	16ee-	.	.	16ee-
8GG	8e-	8g	16b-	8GG	8g	16b-
.	.	.	16ee-	.	.	16ee-
8GG	8e-	8b-	16b-	8GG	8b-	16b-
.	.	.	16ee-	.	.	16ee-
8AA-	8e-	8e-	16cc	8AA-	8e-	16cc
.	.	.	16ee-	.	.	16ee-
8AA-	8e-	8A-	16cc	8AA-	8A-	16cc
.	.	.	16ee-	.	.	16ee-
8AA-	8e-	4r	16cc	8AA-	4r	16cc
.	.	.	16ee-	.	.	16ee-
8AA-	8e-	.	16cc	8AA-	.	16cc
.	.	.	16ee-	.	.	16ee-
=17	=17	=17	=17	=17	=17	=17
8BB-	8B-	8d	16f	8BB-	8d	16f
.	.	.	16b-	.	.	16b-
8BB-	8B-	8f	16f	8BB-	8f	16f
.	.	.	16b-	.	.	16b-
8BB-	8B-	8b-	16f	8BB-	8b-	16f
.	.	.	16b-	.	.	16b-
8BB-	8B-	8d	16f	8BB-	8d	16f
.	.	.	16b-	.	.	16b-
8E-	8B-	8e-	16g	8E-	8e-	16g
.	.	.	16e-	.	.	16e-
8E-	8B-	8G	16g	8E-	8G	16g
.	.	.	16e-	.	.	16e-
8E-	8B-	4r	16g	8E-	4r	16g
.	.	.	16e-	.	.	16e-
8E-	8B-	.	16g	8E-	.	16g
.	.	.	16e-	.	.	16e-
=18	=18	=18	=18	=18	=18	=18
8GG	8e-	8ee-	16b-	8GG	8ee-	16b-
.	.	.	16ee-	.	.	16ee-
8GG	8e-	8e-	16b-	8GG	8e-	16b-
.	.	.	16ee-	.	.	16ee-
8GG	8e-	8g	16b-	8GG	8g	16b-
.	.	.	16ee-	.	.	16ee-
8GG	8e-	8b-	16b-	8GG	8b-	16b-
.	.	.	16ee-	.	.	16ee-
8AA-	8e-	8e-	16cc	8AA-	8e-	16cc
.	.	.	16ee-	.	.	16ee-
8AA-	8e-	8A-	16cc	8AA-	8A-	16cc
.	.	.	16ee-	.	.	16ee-
8AA-	8e-	4r	16cc	8AA-	4r	16cc
.	.	.	16ee-	.	.	16ee-
8AA-	8e-	.	16cc	8AA-	.	16cc
.	.	.	16ee-	.	.	16ee-
=19	=19	=19	=19	=19	=19	=19
8BB-	8B-	8d	16f	8BB-	8d	16f
.	.	.	16b-	.	.	16b-
8BB-	8B-	8f	16f	8BB-	8f	16f
.	.	.	16b-	.	.	16b-
8BB-	8B-	8b-	16f	8BB-	8b-	16f
.	.	.	16b-	.	.	16b-
8BB-	8B-	8d	16f	8BB-	8d	16f
.	.	.	16b-	.	.	16b-
4E-	4B-	4e-	4g	4E-	4e-	4g
4r	4r	4r	4r	4r	4r	4r
=20	=20	=20	=20	=20	=20	=20
4D	4B-	4f	4b-	4D	4f	4b-
4r	4r	4r	4r	4r	4r	4r
4C	4c	4e-	4a	4C	4e-	4a
4r	4r	4r	4r	4r	4r	4r
=21	=21	=21	=21	=21	=21	=21
2BB-	2f	2d	2b-	2BB-	2d	2b-
2r	2r	2r	2r	2r	2r	2r
=22	=22	=22	=22	=22	=22	=22
4E-	8e-	8g	8b-	8e-	2r	16g
.	.	.	.	.	.	16b-
.	8e-	8g	8b-	8e-	.	16ee-
.	.	.	.	.	.	16b-
4r	8e-	8g	8b-	8e-	.	16g
.	.	.	.	.	.	16e-
.	8e-	8g	8b-	8e-	.	16g
.	.	.	.	.	.	16b-
4D	8b-	8f	8b-	8d	16f	8f
.	.	.	.	.	16b-	.
.	8B-	8f	8b-	8d	16dd	8B-
.	.	.	.	.	16b-	.
4r	8B-	8f	8b-	8d	16f	4r
.	.	.	.	.	16d	.
.	8B-	8f	8b-	8d	16f	.
.	.	.	.	.	16b-	.
=23	=23	=23	=23	=23	=23	=23
4C	8c	8e-	8b-	8c	8e-	16ee-
.	.	.	.	.	.	16gg
.	8c	8e-	8e-	8c	8ee-	16bb-
.	.	.	.	.	.	16gg
4r	8e-	8e-	8a-	8c	4r	16ee-
.	.	.	.	.	.	16cc
.	8e-	8a-	8cc	8f	.	16a-
.	.	.	.	.	.	16cc
8BB-	8f	8a-	8d	8B-	8a-	8d
8E-	16g	8g	4e-	8E-	8g	4e-
.	16a-	.	.	.	.	.
8B-	8.b-	8.f	.	8B-	8.f	.
8BB-	.	.	8d	8BB-	.	8d
.	16b-	16b-	.	.	16b-	.
=24	=24	=24	=24	=24	=24	=24
4E-	4b-	4g	4e-	16r	8g	8e-
.	.	.	.	16E-	.	.
.	.	.	.	16G	8gg	4ee-
.	.	.	.	16E-	.	.
2.r	2.r	2.r	2.r	16B-	8ff	.
.	.	.	.	16BB-	.	.
.	.	.	.	16D	8b-	8dd
.	.	.	.	16BB-	.	.
.	.	.	.	16r	8r	16e
.	.	.	.	16c	.	16g
.	.	.	.	16e-	8ee-	4cc
.	.	.	.	16c	.	.
.	.	.	.	16g	8dd	.
.	.	.	.	16G	.	.
.	.	.	.	16B-	8g	8b-
.	.	.	.	16G	.	.
=25	=25	=25	=25	=25	=25	=25
2..r	2..r	2..r	2..r	16r	8r	16c
.	.	.	.	16A-	.	16e-
.	.	.	.	16c	8cc	4a-
.	.	.	.	16A-	.	.
.	.	.	.	16e-	8b-	.
.	.	.	.	16E-	.	.
.	.	.	.	16G	8e-	8g
.	.	.	.	16E-	.	.
.	.	.	.	16r	8r	16A-
.	.	.	.	16F	.	16c
.	.	.	.	16A-	8a-	4f
.	.	.	.	16F	.	.
.	.	.	.	16G	4g	.
.	.	.	.	16F	.	.
8G	8B-	8g	[8e-	16G	.	[8e-
.	.	.	.	16E-	.	.
=26	=26	=26	=26	=26	=26	=26
8A	8c	8f	8e-]	8A	8f	8e-]
8B-	8d	4b-	8d	8B-	4b-	8d
8E-	8g	.	8c	8E-	.	8.c
8F	8f	8a	8f	8F	8a	.
.	.	.	.	.	.	16f
4BB-	4f	4b-	8d	4BB-	4b-	8d
.	.	.	4b-	.	.	4b-
4r	4r	4cc	.	4r	4cc	.
.	.	.	[8a-	.	.	[8a-
=27	=27	=27	=27	=27	=27	=27
2r	2r	8dd	8a-]	2r	8dd	8a-]
.	.	8ee-	4g	.	8ee-	4g
.	.	4.a-	.	.	4.a-	.
.	.	.	8f	.	.	8f
4E-	4b-	.	8B-	16r	.	8B-
.	.	.	.	16E-	.	.
.	.	8g	4e-	16G	8g	4e-
.	.	.	.	16E-	.	.
4BB-	4b-	4f	.	16B-	4f	.
.	.	.	.	16BB-	.	.
.	.	.	[8d	16D	.	[8d
.	.	.	.	16BB-	.	.
=28	=28	=28	=28	=28	=28	=28
4C	4g	4e-	8d]	16r	4e-	8d]
.	.	.	.	16C	.	.
.	.	.	4c	16E-	.	4c
.	.	.	.	16C	.	.
4GG	4g	8.d	.	16G	8.d	.
.	.	.	.	16GG	.	.
.	.	.	8B-	16BB-	.	8B-
.	.	16b-	.	16GG	16b-	.
4AA-	4e-	8a-	16c	16AA-	8a-	16c
.	.	.	16d	16BB-	.	16d
.	.	8g	8e-	16C	8g	8e-
.	.	.	.	16AA-	.	.
4BB-	4B-	8.f	8.e-	8BB-	8.f	8.e-
.	.	.	.	8BB-	.	.
.	.	16b-	16d	.	16b-	16d
=29	=29	=29	=29	=29	=29	=29
8E-	4B-	4g	8e-	16E-	4g	8e-
.	.	.	.	16F	.	.
8G	.	.	4b-	16G	.	4b-
.	.	.	.	16E-	.	.
8A-	8r	4cc	.	16A-	4cc	.
.	.	.	.	16B-	.	.
8AA-	8c	.	4a-	16c	.	4a-
.	.	.	.	16A-	.	.
8BB-	8f	8d	.	8B-	8d	.
8E-	16g	4e-	8g	8E-	4e-	8g
.	16a-	.	.	.	.	.
8B-	8.b-	.	4f	8B-	.	4f
8BB-	.	8d	.	8BB-	8d	.
.	16b-	.	.	.	.	.
=30	=30	=30	=30	=30	=30	=30
4E-	4g	4e-	16ee-	4E-	4e-	16ee-
.	.	.	16b-	.	.	16b-
.	.	.	16g	.	.	16g
.	.	.	16e-	.	.	16e-
4D	4r	16ee-	4ee-	4D	16ee-	4ee-
.	.	16b-	.	.	16b-	.
.	.	16g	.	.	16g	.
.	.	16e-	.	.	16e-	.
4C	4e-	4ee-	16ee-	4C	4ee-	16ee-
.	.	.	16b-	.	.	16b-
.	.	.	16g	.	.	16g
.	.	.	16e-	.	.	16e-
4BB-	4g	16ee-	4ee-	4BB-	16ee-	4ee-
.	.	16b-	.	.	16b-	.
.	.	16g	.	.	16g	.
.	.	16e-	.	.	16e-	.
=31	=31	=31	=31	=31	=31	=31
4AA-	4c	4ee-	16ee-	4AA-	4ee-	16ee-
.	.	.	16dd	.	.	16dd
.	.	.	16cc	.	.	16cc
.	.	.	16b-	.	.	16b-
4r	4r	16ee-	16cc	4r	16ee-	16cc
.	.	16dd	16b-	.	16dd	16b-
.	.	16cc	16a-	.	16cc	16a-
.	.	16b-	16g	.	16b-	16g
4AA-	4e-	16cc	16a-	4AA-	16cc	16a-
.	.	16b-	16g	.	16b-	16g
.	.	16a-	16f	.	16a-	16f
.	.	16g	16e-	.	16g	16e-
8r	8r	16a-	16cc	8r	16a-	16cc
.	.	16g	16b-	.	16g	16b-
8AA-	8a-	16f	16a-	8AA-	16f	16a-
.	.	16e-	16g	.	16e-	16g
=32	=32	=32	=32	=32	=32	=32
4BB-	4a-	4d	4f	4BB-	4d	4f
4EE-	8g	2e-	4g	4EE-	2e-	4g
.	8a-	.	.	.	.	.
2BB-	4b-	.	4.f	2BB-	.	4.f
.	4B-	4d	.	.	4d	.
.	.	.	8b-	.	.	8b-
=33	=33	=33	=33	=33	=33	=33
1EE-	1B-	1e-	1g	1EE-	1e-	1g
==	==	==	==	==	==	==
*-	*-	*-	*-	*-	*-	*-
!!!RWG: This file only contains pitch and duration data.
!!!RWG: Transposing instruments are not transposed.
!!!RWG: Durations of rests and tied notes may be interpreted.
!!!RWG: Key is interpreted using the Humdrum key tool.
!!!SCA: 
!!!YOR: Chrysander Edition
!!!AGN: concerto grosso
!!!AFT: stage1
!!!ENC: F. Bennion
!!!END: 1997/04/15
!!!AST: baroque
!!!YEC: Copyright 1994, Center for Computer Assisted Research in the Humanities
!!!YEM: Rights to all derivative electronic formats reserved.
!!!YEM: Refer to licensing agreement for further details.
!!!YEN: United States of America
!!!EED: W.B. Hewlett
!!!KEY: 1513747017
!!!EMD: Converted from MuseData to Humdrum Aug 9, 1999, by Bret Aarden using muse2kern.
!!!VTS: 2870995655
